images/cons.svg

<svg width="73" height="84" viewBox="0 0 73 84" fill="none" xmlns="http://www.w3.org/2000/svg">
<path d="M36.8088 45.729C16.8247 45.729 0.569733 61.984 0.569733 81.9681C0.569733 82.733 1.23906 83.4023 2.004 83.4023H71.5179C72.2829 83.4023 72.9522 82.733 72.9522 81.9681C73.0478 61.984 56.7928 45.729 36.8088 45.729ZM36.8088 48.5975C41.2072 48.5975 45.51 49.4581 49.3347 51.0836L37.2869 59.976L24.3785 51.0836C28.2032 49.4581 32.4104 48.5975 36.8088 48.5975ZM3.53388 80.5338C4.01196 68.3904 11.1833 57.8724 21.3187 52.4222L36.5219 62.8445C36.8088 63.0358 37.0956 63.1314 37.2869 63.1314C37.5737 63.1314 37.8606 63.0358 38.1474 62.8445L52.2988 52.4222C62.5299 57.7768 69.6056 68.2947 70.0837 80.5338H3.53388Z" fill="url(#paint0_linear_4_755)"/>
<path d="M36.2351 41.8087C47.7092 41.8087 57.0797 32.4382 57.0797 20.9641C57.0797 9.49003 47.7092 0.119507 36.2351 0.119507C24.761 0.119507 15.3904 9.49003 15.3904 20.9641C15.3904 32.5339 24.761 41.8087 36.2351 41.8087ZM36.2351 3.08365C43.8845 3.08365 50.3865 7.86453 52.9681 14.5578C52.1076 14.0797 51.0558 13.506 50.0996 12.9323C46.0837 10.5418 43.3108 9.01194 41.494 9.20317C37.8606 9.49002 35.757 10.9243 33.4622 12.3586C32.2191 13.1235 30.8805 13.984 29.255 14.6534L28.7769 14.8446C25.239 16.2789 23.0398 17.235 18.7371 17.7131C20.1713 9.39441 27.4383 3.08365 36.2351 3.08365ZM18.259 20.5817C23.4223 20.1036 26.004 19.0518 29.7331 17.4263L30.2112 17.235C32.1235 16.4701 33.5578 15.5139 34.8964 14.6534C37 13.3147 38.8167 12.1673 41.6853 11.9761C42.7371 11.8805 46.3705 14.0797 48.5697 15.3227C50.7689 16.6613 52.5857 17.7131 53.9243 18.0956C54.1155 19.0518 54.2112 20.008 54.2112 20.9641C54.2112 30.8127 46.1793 38.9402 36.2351 38.9402C26.2908 38.9402 18.259 30.9084 18.259 20.9641C18.259 20.8685 18.259 20.7729 18.259 20.5817Z" fill="url(#paint1_linear_4_755)"/>
<defs>
<linearGradient id="paint0_linear_4_755" x1="54.3461" y1="41.3774" x2="31.5592" y2="93.1976" gradientUnits="userSpaceOnUse">
<stop offset="0.1177" stop-color="#7ACA37"/>
<stop offset="0.2561" stop-color="#70C53A"/>
<stop offset="0.4886" stop-color="#56B641"/>
<stop offset="0.7848" stop-color="#2C9F4E"/>
<stop offset="1" stop-color="#098C58"/>
</linearGradient>
<linearGradient id="paint1_linear_4_755" x1="46.3632" y1="-4.69593" x2="12.6275" y2="35.2343" gradientUnits="userSpaceOnUse">
<stop offset="0.1177" stop-color="#7ACA37"/>
<stop offset="0.2561" stop-color="#70C53A"/>
<stop offset="0.4886" stop-color="#56B641"/>
<stop offset="0.7848" stop-color="#2C9F4E"/>
<stop offset="1" stop-color="#098C58"/>
</linearGradient>
</defs>
</svg>

<svg width="73" height="84" fill="none" xmlns="http://www.w3.org/2000/svg"><path d="M36.809 45.729c-19.984 0-36.24 16.255-36.24 36.24 0 .764.67 1.433 1.435 1.433h69.514c.765 0 1.434-.669 1.434-1.434.096-19.984-16.16-36.239-36.143-36.239Zm0 2.868c4.398 0 8.701.861 12.526 2.487l-12.048 8.892-12.909-8.892c3.825-1.626 8.032-2.487 12.43-2.487ZM3.534 80.534c.478-12.144 7.65-22.662 17.785-28.112l15.203 10.422c.287.192.574.287.765.287.287 0 .574-.095.86-.287L52.3 52.422c10.23 5.355 17.307 15.873 17.785 28.112H3.534Z" fill="url(#a)"/><path d="M36.235 41.809c11.474 0 20.845-9.37 20.845-20.845C57.08 9.49 47.71.12 36.235.12 24.761.12 15.39 9.49 15.39 20.964c0 11.57 9.371 20.845 20.845 20.845Zm0-38.725c7.65 0 14.151 4.78 16.733 11.474-.86-.478-1.912-1.052-2.868-1.626-4.016-2.39-6.79-3.92-8.606-3.729-3.633.287-5.737 1.721-8.032 3.156-1.243.764-2.582 1.625-4.207 2.294l-.478.192c-3.538 1.434-5.737 2.39-10.04 2.868 1.434-8.319 8.701-14.63 17.498-14.63ZM18.26 20.582c5.163-.478 7.745-1.53 11.474-3.156l.478-.191c1.913-.765 3.347-1.721 4.685-2.582 2.104-1.338 3.92-2.486 6.79-2.677 1.051-.096 4.684 2.104 6.884 3.347 2.199 1.338 4.016 2.39 5.354 2.773.191.956.287 1.912.287 2.868 0 9.849-8.032 17.976-17.976 17.976-9.944 0-17.976-8.032-17.976-17.976v-.382Z" fill="url(#b)"/><defs><linearGradient id="a" x1="54.346" y1="41.377" x2="31.559" y2="93.198" gradientUnits="userSpaceOnUse"><stop offset=".118" stop-color="#7ACA37"/><stop offset=".256" stop-color="#70C53A"/><stop offset=".489" stop-color="#56B641"/><stop offset=".785" stop-color="#2C9F4E"/><stop offset="1" stop-color="#098C58"/></linearGradient><linearGradient id="b" x1="46.363" y1="-4.696" x2="12.627" y2="35.234" gradientUnits="userSpaceOnUse"><stop offset=".118" stop-color="#7ACA37"/><stop offset=".256" stop-color="#70C53A"/><stop offset=".489" stop-color="#56B641"/><stop offset=".785" stop-color="#2C9F4E"/><stop offset="1" stop-color="#098C58"/></linearGradient></defs></svg>
